X: 8016
T: Connemara Skies
R: hornpipe
M: 4/4
K: Dmajor
FE|DA,G,A, FA,G,A,|GFGB ADFA|dAFA Bdgf|(3edc (3dcB (3AGF (3GFE|
DA,G,A, FA,G,A,|GFGB AdcB|Adfa gece|dfaf d2:|
cd|edcd fage|fd (3dcd bagf|edcd efgf|(3edc (3dcB AGFA|
fdcd fage|fd (3dcd bagf|edcB Acec|dfaf d2:|

